images/neu.svg

<svg height="250" viewBox="0 0 250 250" width="250" xmlns="http://www.w3.org/2000/svg"><g fill-rule="evenodd"><path d="m250 125c0 69.035156-55.964844 125-125 125s-125-55.964844-125-125 55.964844-125 125-125 125 55.964844 125 125zm0 0" fill="#d5e20f"/><path d="m58.316406 88.957031v83.070313l70.121094 41.535156 70.128906-41.535156v-83.070313l-70.128906-41.542969zm37-13.964843 1.417969-.84375 31.703125-18.773438 33.089844 19.585938v104.609374zm72.136719 3.484374 24.398437 14.449219v75.121094l-24.398437 14.457031zm-102.421875 89.570313v-75.121094l23.652344-14.003906v103.140625zm29.570312 17.519531v-100.550781l64.746094 102.28125-30.910156 18.3125zm0 0" fill="#1e3038"/></g></svg>

<svg xmlns="http://www.w3.org/2000/svg" xmlns:xlink="http://www.w3.org/1999/xlink" width="250px" height="250px" viewBox="0 0 250 250" version="1.1">
<g id="surface1">
<path style=" stroke:none;fill-rule:evenodd;fill:rgb(83.529413%,88.627452%,5.882353%);fill-opacity:1;" d="M 250 125 C 250 194.035156 194.035156 250 125 250 C 55.964844 250 0 194.035156 0 125 C 0 55.964844 55.964844 0 125 0 C 194.035156 0 250 55.964844 250 125 Z M 250 125 "/>
<path style=" stroke:none;fill-rule:evenodd;fill:rgb(11.764706%,18.82353%,21.960784%);fill-opacity:1;" d="M 58.316406 88.957031 L 58.316406 172.027344 L 128.4375 213.5625 L 198.566406 172.027344 L 198.566406 88.957031 L 128.4375 47.414062 Z M 95.316406 74.992188 L 96.734375 74.148438 L 128.4375 55.375 L 161.527344 74.960938 L 161.527344 179.570312 Z M 167.453125 78.476562 L 191.851562 92.925781 L 191.851562 168.046875 L 167.453125 182.503906 Z M 65.03125 168.046875 L 65.03125 92.925781 L 88.683594 78.921875 L 88.683594 182.0625 Z M 94.601562 185.566406 L 94.601562 85.015625 L 159.347656 187.296875 L 128.4375 205.609375 Z M 94.601562 185.566406 "/>
</g>
</svg>
